dist/img/blog/3.svg

<svg width="25" height="25" viewBox="0 0 25 25" fill="none" xmlns="http://www.w3.org/2000/svg">
<path d="M14.5286 7.07599C10.4027 7.07599 7.05762 10.4208 7.05762 14.547C7.05762 18.6733 10.4025 22.0183 14.5286 22.0183C18.6547 22.0183 22 18.6735 22 14.547C21.9998 10.4211 18.6548 7.07599 14.5286 7.07599ZM11.2847 15.0183C10.6774 15.0183 10.1849 14.5261 10.1849 13.9184C10.1849 13.3108 10.6774 12.8186 11.2847 12.8186C11.8924 12.8186 12.3846 13.3108 12.3846 13.9184C12.3846 14.5261 11.8924 15.0183 11.2847 15.0183ZM12.0506 10.7003C12.0506 10.0929 12.5431 9.60044 13.1504 9.60044C13.7581 9.60044 14.2503 10.0927 14.2503 10.7003C14.2503 11.308 13.7578 11.8002 13.1503 11.8002C12.5428 11.8002 12.0506 11.308 12.0506 10.7003ZM15.0157 15.0183C14.4083 15.0183 13.9158 14.5261 13.9158 13.9184C13.9158 13.3108 14.4084 12.8186 15.0157 12.8186C15.6233 12.8186 16.1156 13.3108 16.1156 13.9184C16.1156 14.5261 15.6233 15.0183 15.0157 15.0183Z" fill="#202125"/>
<path d="M6.10983 8.75611C6.09943 8.45142 6.1263 8.12842 6.17851 7.79092L3.85413 7.79108C3.90602 8.12824 3.9329 8.45127 3.9228 8.75627L6.10983 8.75611Z" fill="#202125"/>
<path d="M3.67592 6.90059H6.35593C6.50447 6.27381 6.69558 5.6127 6.86414 4.93577C7.29872 3.18972 6.42924 2 5.01582 2C3.60209 2 2.7328 3.18968 3.16735 4.93577C3.33593 5.61274 3.52704 6.27369 3.67588 6.90059H3.67592Z" fill="#202125"/>
<path d="M6.16628 14.547C6.16628 13.2824 6.44983 12.0834 6.95462 11.0079C6.71069 10.4833 6.48571 10.0853 6.35708 9.82832C6.32771 9.76959 6.30379 9.70853 6.28001 9.64746L3.75226 9.64731C3.72864 9.70837 3.70456 9.76959 3.67519 9.82816C3.05884 11.0604 0.235432 15.4663 3.67519 22.0463H6.35708C6.89452 21.0182 7.27469 20.0454 7.53805 19.1275C6.67202 17.8109 6.16628 16.2369 6.16628 14.547V14.547Z" fill="#202125"/>
</svg>

<svg width="25" height="25" viewBox="0 0 25 25" fill="none" xmlns="http://www.w3.org/2000/svg"><path d="M14.529 7.076a7.471 7.471 0 100 14.942 7.471 7.471 0 000-14.942zm-3.244 7.942a1.1 1.1 0 110-2.2 1.1 1.1 0 010 2.2zm.766-4.318a1.1 1.1 0 112.2 0 1.1 1.1 0 01-2.2 0zm2.965 4.318a1.1 1.1 0 110-2.2 1.1 1.1 0 010 2.2zM6.11 8.756a5.16 5.16 0 01.069-.965H3.854c.052.337.079.66.069.965H6.11zM3.676 6.9h2.68c.148-.626.34-1.287.508-1.964C7.3 3.19 6.43 2 5.016 2 3.602 2 2.733 3.19 3.167 4.936c.169.677.36 1.338.509 1.965z" fill="#202125"/><path d="M6.166 14.547c0-1.265.284-2.464.789-3.54-.244-.524-.47-.922-.598-1.179a2.127 2.127 0 01-.077-.18H3.752a2.057 2.057 0 01-.077.18c-.616 1.232-3.44 5.638 0 12.218h2.682c.538-1.028.918-2 1.181-2.918a8.31 8.31 0 01-1.372-4.581z" fill="#202125"/></svg>
